src/smileys-emotion/face-concerned/1F628.svg

<svg id="emoji" viewBox="0 0 72 72" xmlns="http://www.w3.org/2000/svg">
  <g id="grid">
    <path fill="#B3B3B3" d="M68,4v64H4V4H68 M72,0H0v72h72V0z"/>
    <path fill="none" stroke="#00A5FF" stroke-miterlimit="10" stroke-width="0.1" d="M12.923,10.9583h46.1539 c1.0621,0,1.9231,0.861,1.9231,1.9231v0v46.1538c0,1.0621-0.861,1.9231-1.9231,1.9231H12.9231 c-1.0621,0-1.9231-0.861-1.9231-1.9231l0,0V12.8813C11,11.8193,11.861,10.9583,12.923,10.9583L12.923,10.9583z"/>
    <path fill="none" stroke="#00A5FF" stroke-miterlimit="10" stroke-width="0.1" d="M18.2537,4h35.4926C54.991,4,56,5.009,56,6.2537 v59.4926C56,66.991,54.991,68,53.7463,68H18.2537C17.009,68,16,66.991,16,65.7463V6.2537C16,5.009,17.009,4,18.2537,4z"/>
    <path fill="none" stroke="#00A5FF" stroke-miterlimit="10" stroke-width="0.1" d="M68,18.2537v35.4926 C68,54.991,66.991,56,65.7463,56H6.2537C5.009,56,4,54.991,4,53.7463V18.2537C4,17.009,5.009,16,6.2537,16h59.4926 C66.991,16,68,17.009,68,18.2537z"/>
    <circle cx="36" cy="36" r="29" fill="none" stroke="#00A5FF" stroke-miterlimit="10" stroke-width="0.1"/>
  </g>
  <g id="color">
    <path fill="#FCEA2B" d="M36,13.2002c-12.5719,0-22.7998,10.2279-22.7998,22.7998c0,12.5718,10.2279,22.7998,22.7998,22.7998 c12.5718,0,22.7998-10.228,22.7998-22.7998C58.7998,23.4281,48.5718,13.2002,36,13.2002z"/>
    <path fill="#FFFFFF" d="M31.5797,31.3465c0,2.4645-2.0004,4.4626-4.4626,4.4626s-4.4626-1.9981-4.4626-4.4626 c0-2.4622,2.0004-4.4626,4.4626-4.4626S31.5797,28.8843,31.5797,31.3465"/>
    <path fill="#FFFFFF" d="M49.5797,31.3465c0,2.4645-2.0004,4.4626-4.4626,4.4626s-4.4626-1.9981-4.4626-4.4626 c0-2.4622,2.0004-4.4626,4.4626-4.4626S49.5797,28.8843,49.5797,31.3465"/>
    <path fill="#FFFFFF" d="M27.7998,45.8839c0.2704-0.3562,3.3099-4.2177,8.4211-4.0038c4.6054,0.1927,7.2288,3.541,7.5789,4.0038 C38.4665,45.8839,33.1331,45.8839,27.7998,45.8839z"/>
  </g>
  <g id="hair"/>
  <g id="skin"/>
  <g id="skin-shadow"/>
  <g id="line">
    <circle cx="36" cy="36" r="23" fill="none" stroke="#000000" stroke-miterlimit="10" stroke-width="2"/>
    <path fill="none" stroke="#000000" stroke-linecap="round" stroke-linejoin="round" stroke-miterlimit="10" stroke-width="2" d="M22,25c1-1,4-7,10-2"/>
    <path fill="none" stroke="#000000" stroke-linecap="round" stroke-linejoin="round" stroke-miterlimit="10" stroke-width="2" d="M51,25c-1-1-4-7-10-2"/>
    <path fill="none" stroke="#000000" stroke-miterlimit="10" stroke-width="2" d="M31.7799,31.4626 c0,2.4645-2.0004,4.4626-4.4626,4.4626s-4.4626-1.9981-4.4626-4.4626c0-2.4622,2.0004-4.4626,4.4626-4.4626 S31.7799,29.0004,31.7799,31.4626"/>
    <path d="M29.3173,31.9252c0,1.1045-0.8965,2-2,2s-2-0.8955-2-2c0-1.1035,0.8965-2,2-2 C28.4208,29.9252,29.3173,30.8217,29.3173,31.9252"/>
    <path fill="none" stroke="#000000" stroke-miterlimit="10" stroke-width="2" d="M49.7799,31.4626 c0,2.4645-2.0004,4.4626-4.4626,4.4626s-4.4626-1.9981-4.4626-4.4626c0-2.4622,2.0004-4.4626,4.4626-4.4626 S49.7799,29.0004,49.7799,31.4626"/>
    <path d="M47.3173,31.9252c0,1.1045-0.8965,2-2,2s-2-0.8955-2-2c0-1.1035,0.8965-2,2-2 C46.4208,29.9252,47.3173,30.8217,47.3173,31.9252"/>
    <path fill="none" stroke="#000000" stroke-linecap="round" stroke-linejoin="round" stroke-miterlimit="10" stroke-width="2" d="M28,46c0.2704-0.3562,3.3099-4.2177,8.4211-4.0038C41.0265,42.1889,43.6499,45.5372,44,46C38.6667,46,33.3333,46,28,46z"/>
  </g>
</svg>

<svg id="emoji" viewBox="0 0 72 72" xmlns="http://www.w3.org/2000/svg">
  <g id="grid">
    <path fill="#b3b3b3" d="M68,4V68H4V4H68m4-4H0V72H72V0Z"/>
    <path fill="none" stroke="#00a5ff" stroke-miterlimit="10" stroke-width="0.1" d="M12.923,10.9583H59.077A1.923,1.923,0,0,1,61,12.8813V59.0352a1.9231,1.9231,0,0,1-1.9231,1.9231H12.9231A1.9231,1.9231,0,0,1,11,59.0352V12.8813a1.923,1.923,0,0,1,1.923-1.923Z"/>
    <rect x="16" y="4" rx="2.2537" width="40" height="64" fill="none" stroke="#00a5ff" stroke-miterlimit="10" stroke-width="0.1"/>
    <rect x="16" y="4" rx="2.2537" width="40" height="64" transform="rotate(90 36 36)" fill="none" stroke="#00a5ff" stroke-miterlimit="10" stroke-width="0.1"/>
    <circle cx="36" cy="36" r="29" fill="none" stroke="#00a5ff" stroke-miterlimit="10" stroke-width="0.1"/>
  </g>
  <g id="line-supplement">
    <path d="M42.8472,45.6583c0-2.592-3.834-4.694-6.869-4.694s-6.869,2.101-6.869,4.694,3.659.9248,6.694.9248S42.8472,48.25,42.8472,45.6583Z"/>
  </g>
  <g id="color">
    <path fill="#fcea2b" d="M35.9772,12.9583a23,23,0,1,0,23,23A23.026,23.026,0,0,0,35.9772,12.9583Z"/>
    <path fill="#92d3f5" d="M35.9772,24.7689A23.0392,23.0392,0,0,1,58.2053,41.8636a23,23,0,1,0-44.4561,0A23.0389,23.0389,0,0,1,35.9772,24.7689Z"/>
    <path d="M42.8472,45.6583c0-2.592-3.834-4.694-6.869-4.694s-6.869,2.101-6.869,4.694,3.659.9248,6.694.9248S42.8472,48.25,42.8472,45.6583Z"/>
  </g>
  <g id="line">
    <path fill="none" stroke="#000" stroke-linecap="round" stroke-linejoin="round" stroke-width="2" d="M29.3564,22.669a8.44,8.44,0,0,0-9.0659,4.4981"/>
    <path fill="none" stroke="#000" stroke-linecap="round" stroke-linejoin="round" stroke-width="2" d="M51.664,27.1671a8.44,8.44,0,0,0-9.0659-4.4981"/>
    <circle cx="35.9772" cy="35.9583" r="23" fill="none" stroke="#000" stroke-miterlimit="10" stroke-width="2"/>
    <path fill="none" stroke="#000" stroke-miterlimit="10" stroke-width="2" d="M42.8472,45.6583c0-2.592-3.834-4.694-6.869-4.694s-6.869,2.101-6.869,4.694,3.659.9248,6.694.9248S42.8472,48.25,42.8472,45.6583Z"/>
    <path d="M29.9772,32.9583a3,3,0,1,1-3-3,3.0011,3.0011,0,0,1,3,3"/>
    <path d="M47.9772,32.9583a3,3,0,1,1-3-3,3.0011,3.0011,0,0,1,3,3"/>
  </g>
</svg>
